public/assets/images/step1.svg

<svg width="118" height="100" viewBox="0 0 118 100" fill="none" xmlns="http://www.w3.org/2000/svg">
<circle cx="67.5" cy="50" r="46.5" stroke="#FF746C" stroke-width="7"/>
<path d="M18.8333 43V55.5L2 50L18.8333 43Z" fill="#FF746C" stroke="#FF746C"/>
<path d="M70.85 61.65C70.85 62.15 71.0833 62.55 71.55 62.85C72.0167 63.1167 72.6833 63.3 73.55 63.4C74.4167 63.5 75.4333 63.55 76.6 63.55H78.35V66H57.1V63.55H59.35C60.4833 63.55 61.45 63.5 62.25 63.4C63.05 63.3 63.6667 63.1167 64.1 62.85C64.5333 62.55 64.75 62.15 64.75 61.65V39.2L65.6 38.65C65.3333 39.35 64.9 39.9833 64.3 40.55C63.7333 41.0833 63.0333 41.55 62.2 41.95C61.3667 42.3167 60.4333 42.6 59.4 42.8C58.3667 43 57.3 43.1 56.2 43.1V39.45C57.4667 39.4167 58.6333 39.3333 59.7 39.2C60.7667 39.0333 61.7167 38.7833 62.55 38.45C63.4167 38.1167 64.1667 37.7167 64.8 37.25C65.4667 36.7833 66.0167 36.2167 66.45 35.55H70.85V61.65Z" fill="#FF746C"/>
</svg>

<svg xmlns="http://www.w3.org/2000/svg" width="118" height="100" fill="none"><circle cx="67.5" cy="50" r="46.5" stroke="#FF746C" stroke-width="7"/><path fill="#FF746C" stroke="#FF746C" d="M18.833 43v12.5L2 50z"/><path fill="#FF746C" d="M70.85 61.65q0 .75.7 1.2.7.4 2 .55a27 27 0 0 0 3.05.15h1.75V66H57.1v-2.45h2.25q1.7 0 2.9-.15t1.85-.55q.65-.45.65-1.2V39.2l.85-.55q-.4 1.05-1.3 1.9-.85.8-2.1 1.4a13 13 0 0 1-2.8.85q-1.55.3-3.2.3v-3.65a36 36 0 0 0 3.5-.25q1.6-.25 2.85-.75 1.3-.5 2.25-1.2a6.2 6.2 0 0 0 1.65-1.7h4.4z"/></svg>
